; generated by Slic3r 0.9.8 on 2013-04-14 at 20:15:45

; layer_height = 0.2
; perimeters = 1
; top_solid_layers = 0
; bottom_solid_layers = 0
; fill_density = 0.0
; perimeter_speed = 40
; infill_speed = 80
; travel_speed = 150
; scale = 1
; nozzle_diameter = 0.4
; filament_diameter = 1.75
; extrusion_multiplier = 1
; perimeters extrusion width = 0.64mm
; infill extrusion width = 0.64mm
; first layer extrusion width = 0.60mm

M127
M104 S230 T0 ; set temperature
(**** Start.gcode for Replicator 2 ****)
M103 ;disable RPM
M73 P0 ;enable build progress
G21 ;set units to mm
G90 ;set positioning to absolute
(**** begin homing ****)
G162 X Y F2500 ;home XY axes maximum
G161 Z F1100 ;home Z axis minimum
G92 Z-5 ;set Z to -5
G1 Z0.0 ;move Z to "0"
G161 Z F100 ;home Z axis minimum
M132 X Y Z A B ;Recall stored home offsets for XYZAB axis
(**** end homing ****)
G1 X-141 Y-74 Z75 F3300.0 ;move to waiting position
G130 X20 Y20 Z20 A20 B20 ;Lower stepper Vrefs while heating
M6 T0 ;wait for toolhead, and HBP to reach temperature
M70 P5 (We Be Making Things!)
G130 X127 Y127 Z40 A127 B127 ;Set Stepper motor Vref to defaults
M108 R3.0 T0
G0 X-141 Y-74 ;Position Nozzle
G0 Z1 ;Move above plate
G1 Z0.3 ;Position Height
M108 R5.0 ;Set Extruder Speed
M101 ;Start Extruder
G4 P3000 ;Create Anchor
G1 X-137 Y-70 Z0.1 F1000.0 ;Slow wipe
G0 Z0.3 ;and lift
(**** end of Start.gcode ****)
G90 ; use absolute coordinates
G21 ; set units to millimeters
M73 P0
G1 F1800.000 E-2.00000
G1 Z0.300 F9000.000
(**** New Layer ****)
G1 X-18.317 Y-18.810
G1 F1800.000 E0.00000
G1 X-17.907 Y-19.200 F2160.000 E0.03932
G1 X-16.497 Y-20.430 E0.16932
G1 X-15.987 Y-20.830 E0.21436
G1 X-14.457 Y-21.920 E0.34489
G1 X-13.907 Y-22.280 E0.39056
G1 X-12.277 Y-23.210 E0.52095
G1 X-11.757 Y-23.470 E0.56135
G1 X-10.057 Y-24.250 E0.69131
G1 X-9.497 Y-24.480 E0.73337
G1 X-7.727 Y-25.100 E0.86368
G1 X-7.097 Y-25.280 E0.90921
G1 X-5.277 Y-25.720 E1.03931
G1 X-4.677 Y-25.840 E1.08182
G1 X-2.817 Y-26.110 E1.21241
G1 X-1.877 Y-26.180 E1.27791
G1 X-0.317 Y-26.250 E1.38641
G1 X0.273 Y-26.250 E1.42740
G1 X2.143 Y-26.170 E1.55745
G1 X2.803 Y-26.110 E1.60350
G1 X4.663 Y-25.840 E1.73409
G1 X5.263 Y-25.720 E1.77661
G1 X7.083 Y-25.280 E1.90671
G1 X7.713 Y-25.100 E1.95223
G1 X9.483 Y-24.480 E2.08254
G1 X10.033 Y-24.260 E2.12370
G1 X11.743 Y-23.480 E2.25429
G1 X12.283 Y-23.200 E2.29656
G1 X13.903 Y-22.270 E2.42635
G1 X14.443 Y-21.920 E2.47106
G1 X15.973 Y-20.830 E2.60158
G1 X16.463 Y-20.450 E2.64467
G1 X17.883 Y-19.220 E2.77520
G1 X18.333 Y-18.790 E2.81845
G1 X19.623 Y-17.440 E2.94819
G1 X20.043 Y-16.950 E2.99303
G1 X21.203 Y-15.470 E3.12368
G1 X21.563 Y-14.960 E3.16706
G1 X22.573 Y-13.380 E3.29735
G1 X22.873 Y-12.870 E3.33847
G1 X23.733 Y-11.210 E3.46837
G1 X23.993 Y-10.640 E3.51190
G1 X24.693 Y-8.900 E3.64221
G1 X24.903 Y-8.300 E3.68638
G1 X25.433 Y-6.500 E3.81676
G1 X25.583 Y-5.880 E3.86108
G1 X25.933 Y-4.040 E3.99122
G1 X26.023 Y-3.440 E4.03337
G1 X26.203 Y-1.570 E4.16391
G1 X26.233 Y-0.940 E4.20773
G1 X26.233 Y0.930 E4.33766
G1 X26.203 Y1.560 E4.38148
G1 X26.023 Y3.430 E4.51202
G1 X25.933 Y4.030 E4.55417
G1 X25.583 Y5.870 E4.68431
G1 X25.433 Y6.490 E4.72863
G1 X24.903 Y8.290 E4.85901
G1 X24.693 Y8.890 E4.90318
G1 X23.993 Y10.630 E5.03349
G1 X23.733 Y11.200 E5.07702
G1 X22.873 Y12.860 E5.20692
G1 X22.573 Y13.370 E5.24804
G1 X21.563 Y14.950 E5.37833
G1 X21.203 Y15.460 E5.42171
G1 X20.043 Y16.940 E5.55236
G1 X19.623 Y17.430 E5.59720
G1 X18.333 Y18.780 E5.72694
G1 X17.883 Y19.210 E5.77019
G1 X16.463 Y20.440 E5.90072
G1 X15.973 Y20.820 E5.94381
G1 X14.443 Y21.910 E6.07433
G1 X13.903 Y22.260 E6.11904
G1 X12.283 Y23.190 E6.24883
G1 X11.773 Y23.450 E6.28861
G1 X10.083 Y24.230 E6.41794
G1 X9.483 Y24.480 E6.46310
G1 X7.693 Y25.100 E6.59472
G1 X7.083 Y25.270 E6.63872
G1 X5.263 Y25.710 E6.76882
G1 X4.663 Y25.830 E6.81134
G1 X2.803 Y26.100 E6.94193
G1 X2.143 Y26.160 E6.98798
G1 X0.273 Y26.240 E7.11803
G1 X-0.287 Y26.240 E7.15694
G1 X-2.157 Y26.160 E7.28699
G1 X-2.817 Y26.100 E7.33303
G1 X-4.677 Y25.830 E7.46362
G1 X-5.277 Y25.710 E7.50614
G1 X-7.097 Y25.270 E7.63624
G1 X-7.727 Y25.090 E7.68176
G1 X-9.497 Y24.470 E7.81207
G1 X-10.057 Y24.240 E7.85414
G1 X-11.757 Y23.460 E7.98410
G1 X-12.277 Y23.200 E8.02449
G1 X-13.907 Y22.270 E8.15489
G1 X-14.457 Y21.910 E8.20056
G1 X-15.987 Y20.820 E8.33109
G1 X-16.497 Y20.420 E8.37612
G1 X-17.907 Y19.190 E8.50613
G1 X-18.317 Y18.800 E8.54545
G1 X-19.617 Y17.450 E8.67567
G1 X-20.077 Y16.920 E8.72443
G1 X-21.227 Y15.440 E8.85466
G1 X-21.557 Y14.980 E8.89399
G1 X-22.577 Y13.400 E9.02466
G1 X-22.887 Y12.860 E9.06793
G1 X-23.747 Y11.200 E9.19783
G1 X-24.027 Y10.600 E9.24383
G1 X-24.717 Y8.860 E9.37389
G1 X-24.907 Y8.290 E9.41564
G1 X-25.437 Y6.490 E9.54601
G1 X-25.587 Y5.900 E9.58831
G1 X-25.947 Y4.060 E9.71858
G1 X-26.037 Y3.390 E9.76555
G1 X-26.207 Y1.520 E9.89602
G1 X-26.237 Y0.930 E9.93707
G1 X-26.237 Y-0.940 E10.06700
G1 X-26.207 Y-1.530 E10.10805
G1 X-26.037 Y-3.400 E10.23851
G1 X-25.957 Y-3.990 E10.27988
G1 X-25.657 Y-5.630 E10.39572
G1 X-25.497 Y-6.310 E10.44426
G1 X-24.907 Y-8.310 E10.58915
G1 X-24.717 Y-8.870 E10.63024
G1 X-24.027 Y-10.610 E10.76029
G1 X-23.747 Y-11.210 E10.80630
G1 X-22.887 Y-12.870 E10.93620
G1 X-22.577 Y-13.410 E10.97946
G1 X-21.557 Y-14.990 E11.11013
G1 X-21.227 Y-15.450 E11.14947
G1 X-20.077 Y-16.930 E11.27970
G1 X-19.617 Y-17.460 E11.32846
G1 X-18.375 Y-18.750 E11.45287
G1 X-18.317 Y-18.810 E11.45868
G1 F1800.000 E9.45868
G1 X-13.594 Y-14.257 F9000.000
G1 F1800.000 E11.45868
G1 X-12.178 Y-15.485 F2160.000 E11.58894
G1 X-10.650 Y-16.572 E11.71919
G1 X-9.027 Y-17.510 E11.84945
G1 X-7.322 Y-18.289 E11.97971
G1 X-5.550 Y-18.902 E12.10997
G1 X-3.728 Y-19.344 E12.24022
G1 X-1.873 Y-19.610 E12.37048
G1 X-0.000 Y-19.700 E12.50074
G1 X1.873 Y-19.610 E12.63100
G1 X3.728 Y-19.344 E12.76125
G1 X5.550 Y-18.902 E12.89151
G1 X7.322 Y-18.289 E13.02177
G1 X9.027 Y-17.510 E13.15203
G1 X10.650 Y-16.572 E13.28229
G1 X12.178 Y-15.485 E13.41254
G1 X13.594 Y-14.257 E13.54280
G1 X13.729 Y-14.116 E13.55635
G1 X14.888 Y-12.901 E13.67306
G1 X16.047 Y-11.427 E13.80332
G1 X17.060 Y-9.850 E13.93357
G1 X17.919 Y-8.184 E14.06383
G1 X18.616 Y-6.443 E14.19409
G1 X19.144 Y-4.644 E14.32435
G1 X19.499 Y-2.804 E14.45460
G1 X19.677 Y-0.937 E14.58486
G1 X19.677 Y0.937 E14.71512
G1 X19.499 Y2.804 E14.84538
G1 X19.144 Y4.644 E14.97564
G1 X18.616 Y6.443 E15.10589
G1 X17.919 Y8.184 E15.23615
G1 X17.060 Y9.850 E15.36641
G1 X16.047 Y11.427 E15.49667
G1 X14.888 Y12.901 E15.62692
G1 X13.594 Y14.257 E15.75718
G1 X12.178 Y15.485 E15.88744
G1 X10.650 Y16.572 E16.01770
G1 X9.027 Y17.510 E16.14795
G1 X7.339 Y18.282 E16.27693
G1 X5.550 Y18.902 E16.40847
G1 X3.728 Y19.344 E16.53873
G1 X1.873 Y19.610 E16.66899
G1 X0.000 Y19.700 E16.79925
G1 X-1.873 Y19.610 E16.92951
G1 X-3.728 Y19.344 E17.05976
G1 X-5.550 Y18.902 E17.19002
G1 X-7.322 Y18.289 E17.32028
G1 X-9.027 Y17.510 E17.45054
G1 X-10.650 Y16.572 E17.58079
G1 X-12.178 Y15.485 E17.71105
G1 X-13.594 Y14.257 E17.84131
G1 X-14.888 Y12.901 E17.97157
G1 X-16.047 Y11.427 E18.10182
G1 X-17.060 Y9.850 E18.23208
G1 X-17.919 Y8.184 E18.36234
G1 X-18.616 Y6.443 E18.49260
G1 X-19.144 Y4.644 E18.62285
G1 X-19.499 Y2.804 E18.75311
G1 X-19.677 Y0.937 E18.88337
G1 X-19.677 Y-0.937 E19.01363
G1 X-19.499 Y-2.804 E19.14389
G1 X-19.182 Y-4.447 E19.26018
G1 X-19.202 Y-4.447 E19.26156
G1 X-18.616 Y-6.443 E19.40611
G1 X-17.919 Y-8.184 E19.53637
G1 X-17.060 Y-9.850 E19.66663
G1 X-16.047 Y-11.427 E19.79688
G1 X-14.888 Y-12.901 E19.92714
G1 X-13.652 Y-14.197 E20.05159
G1 X-13.594 Y-14.257 E20.05740
M126
M104 S225 T0 ; set temperature
M73 P0
G1 F1800.000 E18.05740
G1 Z0.500 F9000.000
(**** New Layer ****)
G1 X-13.581 Y-14.243
G1 F1800.000 E20.05740
G1 X-12.165 Y-15.469 F2400.000 E20.15038
G1 X-10.640 Y-16.556 E20.24336
G1 X-9.018 Y-17.492 E20.33634
G1 X-7.314 Y-18.270 E20.42931
G1 X-5.544 Y-18.882 E20.52229
G1 X-3.724 Y-19.324 E20.61527
G1 X-1.871 Y-19.591 E20.70825
G1 X0.000 Y-19.680 E20.80123
G1 X1.871 Y-19.591 E20.89421
G1 X3.724 Y-19.324 E20.98719
G1 X5.544 Y-18.882 E21.08017
G1 X7.314 Y-18.270 E21.17315
G1 X9.018 Y-17.492 E21.26613
G1 X10.640 Y-16.556 E21.35911
G1 X12.165 Y-15.469 E21.45208
G1 X13.581 Y-14.243 E21.54506
G1 X14.873 Y-12.887 E21.63804
G1 X16.031 Y-11.415 E21.73102
G1 X17.043 Y-9.840 E21.82400
G1 X17.901 Y-8.175 E21.91698
G1 X18.597 Y-6.437 E22.00996
G1 X19.125 Y-4.640 E22.10294
G1 X19.479 Y-2.801 E22.19592
G1 X19.657 Y-0.936 E22.28890
G1 X19.657 Y0.936 E22.38188
G1 X19.479 Y2.801 E22.47485
G1 X19.125 Y4.640 E22.56783
G1 X18.597 Y6.437 E22.66081
G1 X17.901 Y8.175 E22.75379
G1 X17.043 Y9.840 E22.84677
G1 X16.031 Y11.415 E22.93975
G1 X14.873 Y12.887 E23.03273
G1 X13.581 Y14.243 E23.12571
G1 X12.165 Y15.469 E23.21869
G1 X10.640 Y16.556 E23.31167
G1 X9.018 Y17.492 E23.40465
G1 X7.314 Y18.270 E23.49762
G1 X5.544 Y18.882 E23.59060
G1 X3.724 Y19.324 E23.68358
G1 X1.871 Y19.591 E23.77656
G1 X-0.000 Y19.680 E23.86954
G1 X-1.871 Y19.591 E23.96252
G1 X-3.724 Y19.324 E24.05550
G1 X-5.544 Y18.882 E24.14848
G1 X-7.314 Y18.270 E24.24146
G1 X-9.018 Y17.492 E24.33444
G1 X-10.640 Y16.556 E24.42742
G1 X-12.165 Y15.469 E24.52039
G1 X-13.581 Y14.243 E24.61337
G1 X-14.873 Y12.887 E24.70635
G1 X-16.031 Y11.415 E24.79933
G1 X-17.043 Y9.840 E24.89231
G1 X-17.901 Y8.175 E24.98529
G1 X-18.597 Y6.437 E25.07827
G1 X-19.125 Y4.640 E25.17125
G1 X-19.479 Y2.801 E25.26423
G1 X-19.657 Y0.936 E25.35721
G1 X-19.657 Y-0.936 E25.45019
G1 X-19.479 Y-2.801 E25.54316
G1 X-19.125 Y-4.640 E25.63614
G1 X-18.597 Y-6.437 E25.72912
G1 X-17.901 Y-8.175 E25.82210
G1 X-17.043 Y-9.840 E25.91508
G1 X-16.031 Y-11.415 E26.00806
G1 X-14.873 Y-12.887 E26.10104
G1 X-13.642 Y-14.178 E26.18957
G1 X-13.581 Y-14.243 E26.19402
M126
M73 P0
G1 F1800.000 E24.19402
G1 Z0.700 F9000.000
(**** New Layer ****)
G1 F1800.000 E26.19402
G1 X-12.165 Y-15.469 F2400.000 E26.28700
G1 X-10.640 Y-16.556 E26.37998
G1 X-9.018 Y-17.492 E26.47296
G1 X-7.314 Y-18.270 E26.56593
G1 X-5.544 Y-18.882 E26.65891
G1 X-3.724 Y-19.324 E26.75189
G1 X-1.871 Y-19.591 E26.84487
G1 X0.000 Y-19.680 E26.93785
G1 X1.871 Y-19.591 E27.03083
G1 X3.724 Y-19.324 E27.12381
G1 X5.544 Y-18.882 E27.21679
G1 X7.314 Y-18.270 E27.30977
G1 X9.018 Y-17.492 E27.40275
G1 X10.640 Y-16.556 E27.49573
G1 X12.165 Y-15.469 E27.58870
G1 X13.581 Y-14.243 E27.68168
G1 X14.873 Y-12.887 E27.77466
G1 X16.031 Y-11.415 E27.86764
G1 X17.043 Y-9.840 E27.96062
G1 X17.901 Y-8.175 E28.05360
G1 X18.597 Y-6.437 E28.14658
G1 X19.125 Y-4.640 E28.23956
G1 X19.479 Y-2.801 E28.33254
G1 X19.657 Y-0.936 E28.42552
G1 X19.657 Y0.936 E28.51850
G1 X19.479 Y2.801 E28.61147
G1 X19.125 Y4.640 E28.70445
G1 X18.597 Y6.437 E28.79743
G1 X17.901 Y8.175 E28.89041
G1 X17.043 Y9.840 E28.98339
G1 X16.031 Y11.415 E29.07637
G1 X14.873 Y12.887 E29.16935
G1 X13.581 Y14.243 E29.26233
G1 X12.165 Y15.469 E29.35531
G1 X10.640 Y16.556 E29.44829
G1 X9.018 Y17.492 E29.54127
G1 X7.314 Y18.270 E29.63424
G1 X5.544 Y18.882 E29.72722
G1 X3.724 Y19.324 E29.82020
G1 X1.871 Y19.591 E29.91318
G1 X-0.000 Y19.680 E30.00616
G1 X-1.871 Y19.591 E30.09914
G1 X-3.724 Y19.324 E30.19212
G1 X-5.544 Y18.882 E30.28510
G1 X-6.321 Y18.614 E30.32592
G1 X-7.314 Y18.270 E30.37808
G1 X-9.018 Y17.492 E30.47106
G1 X-10.640 Y16.556 E30.56404
G1 X-12.165 Y15.469 E30.65701
G1 X-13.581 Y14.243 E30.74999
G1 X-14.873 Y12.887 E30.84297
G1 X-16.031 Y11.415 E30.93595
G1 X-17.043 Y9.840 E31.02893
G1 X-17.901 Y8.175 E31.12191
G1 X-18.597 Y6.437 E31.21489
G1 X-19.125 Y4.640 E31.30787
G1 X-19.479 Y2.801 E31.40085
G1 X-19.657 Y0.936 E31.49383
G1 X-19.657 Y-0.936 E31.58681
G1 X-19.479 Y-2.801 E31.67978
G1 X-19.125 Y-4.640 E31.77276
G1 X-18.597 Y-6.437 E31.86574
G1 X-17.901 Y-8.175 E31.95872
G1 X-17.043 Y-9.840 E32.05170
G1 X-16.031 Y-11.415 E32.14468
G1 X-14.873 Y-12.887 E32.23766
G1 X-13.642 Y-14.178 E32.32619
G1 X-13.581 Y-14.243 E32.33064
M126
M73 P0
G1 F1800.000 E30.33064
G1 Z0.900 F9000.000
(**** New Layer ****)
G1 F1800.000 E32.33064
G1 X-12.165 Y-15.469 F2400.000 E32.42362
G1 X-10.640 Y-16.556 E32.51660
G1 X-9.018 Y-17.492 E32.60957
G1 X-7.314 Y-18.270 E32.70255
G1 X-5.544 Y-18.882 E32.79553
G1 X-3.724 Y-19.324 E32.88851
G1 X-1.871 Y-19.591 E32.98149
G1 X0.000 Y-19.680 E33.07447
G1 X1.871 Y-19.591 E33.16745
G1 X3.724 Y-19.324 E33.26043
G1 X5.544 Y-18.882 E33.35341
G1 X7.314 Y-18.270 E33.44639
G1 X9.018 Y-17.492 E33.53937
G1 X10.640 Y-16.556 E33.63234
G1 X12.165 Y-15.469 E33.72532
G1 X13.581 Y-14.243 E33.81830
G1 X14.873 Y-12.887 E33.91128
G1 X16.031 Y-11.415 E34.00426
G1 X17.043 Y-9.840 E34.09724
G1 X17.901 Y-8.175 E34.19022
G1 X18.486 Y-6.714 E34.26837
G1 X18.597 Y-6.437 E34.28320
G1 X19.125 Y-4.640 E34.37618
G1 X19.479 Y-2.801 E34.46916
G1 X19.657 Y-0.936 E34.56214
G1 X19.657 Y0.936 E34.65511
G1 X19.479 Y2.801 E34.74809
G1 X19.125 Y4.640 E34.84107
G1 X18.597 Y6.437 E34.93405
G1 X17.901 Y8.175 E35.02703
G1 X17.043 Y9.840 E35.12001
G1 X16.031 Y11.415 E35.21299
G1 X14.873 Y12.887 E35.30597
G1 X13.581 Y14.243 E35.39895
G1 X12.165 Y15.469 E35.49193
G1 X10.640 Y16.556 E35.58491
G1 X9.018 Y17.492 E35.67788
G1 X7.314 Y18.270 E35.77086
G1 X5.544 Y18.882 E35.86384
G1 X3.724 Y19.324 E35.95682
G1 X1.871 Y19.591 E36.04980
G1 X-0.000 Y19.680 E36.14278
G1 X-1.871 Y19.591 E36.23576
G1 X-3.724 Y19.324 E36.32874
G1 X-5.544 Y18.882 E36.42172
G1 X-7.314 Y18.270 E36.51470
G1 X-9.018 Y17.492 E36.60768
G1 X-10.640 Y16.556 E36.70065
G1 X-12.165 Y15.469 E36.79363
G1 X-13.581 Y14.243 E36.88661
G1 X-14.873 Y12.887 E36.97959
G1 X-16.031 Y11.415 E37.07257
G1 X-17.043 Y9.840 E37.16555
G1 X-17.901 Y8.175 E37.25853
G1 X-18.597 Y6.437 E37.35151
G1 X-19.125 Y4.640 E37.44449
G1 X-19.479 Y2.801 E37.53747
G1 X-19.657 Y0.936 E37.63045
G1 X-19.657 Y-0.936 E37.72342
G1 X-19.479 Y-2.801 E37.81640
G1 X-19.125 Y-4.640 E37.90938
G1 X-18.597 Y-6.437 E38.00236
G1 X-17.901 Y-8.175 E38.09534
G1 X-17.043 Y-9.840 E38.18832
G1 X-16.031 Y-11.415 E38.28130
G1 X-14.873 Y-12.887 E38.37428
G1 X-13.642 Y-14.178 E38.46281
G1 X-13.581 Y-14.243 E38.46726
M126
M73 P0
G1 F1800.000 E36.46726
G1 Z1.100 F9000.000
(**** New Layer ****)
G1 F1800.000 E38.46726
G1 X-12.165 Y-15.469 F2400.000 E38.56024
G1 X-10.535 Y-16.630 E38.65959
G1 X-9.018 Y-17.492 E38.74623
G1 X-7.314 Y-18.270 E38.83920
G1 X-5.544 Y-18.882 E38.93218
G1 X-3.724 Y-19.324 E39.02516
G1 X-1.871 Y-19.591 E39.11814
G1 X0.000 Y-19.680 E39.21112
G1 X1.871 Y-19.591 E39.30410
G1 X3.724 Y-19.324 E39.39708
G1 X5.544 Y-18.882 E39.49006
G1 X7.314 Y-18.270 E39.58304
G1 X9.018 Y-17.492 E39.67602
G1 X10.640 Y-16.556 E39.76900
G1 X12.165 Y-15.469 E39.86197
G1 X13.581 Y-14.243 E39.95495
G1 X14.873 Y-12.887 E40.04793
G1 X16.031 Y-11.415 E40.14091
G1 X16.777 Y-10.254 E40.20945
G1 X17.043 Y-9.840 E40.23389
G1 X17.901 Y-8.175 E40.32687
G1 X18.597 Y-6.437 E40.41985
G1 X19.125 Y-4.640 E40.51283
G1 X19.479 Y-2.801 E40.60581
G1 X19.657 Y-0.936 E40.69879
G1 X19.657 Y0.936 E40.79177
G1 X19.479 Y2.801 E40.88474
G1 X19.125 Y4.640 E40.97772
G1 X18.597 Y6.437 E41.07070
G1 X17.901 Y8.175 E41.16368
G1 X17.043 Y9.840 E41.25666
G1 X16.031 Y11.415 E41.34964
G1 X14.873 Y12.887 E41.44262
G1 X13.581 Y14.243 E41.53560
G1 X12.165 Y15.469 E41.62858
G1 X10.640 Y16.556 E41.72156
G1 X9.018 Y17.492 E41.81454
G1 X7.314 Y18.270 E41.90751
G1 X5.544 Y18.882 E42.00049
G1 X3.724 Y19.324 E42.09347
G1 X1.871 Y19.591 E42.18645
G1 X-0.000 Y19.680 E42.27943
G1 X-1.871 Y19.591 E42.37241
G1 X-3.724 Y19.324 E42.46539
G1 X-5.544 Y18.882 E42.55837
G1 X-7.314 Y18.270 E42.65135
G1 X-9.018 Y17.492 E42.74433
G1 X-10.640 Y16.556 E42.83731
G1 X-12.165 Y15.469 E42.93028
G1 X-13.581 Y14.243 E43.02326
G1 X-14.873 Y12.887 E43.11624
G1 X-16.031 Y11.415 E43.20922
G1 X-17.043 Y9.840 E43.30220
G1 X-17.901 Y8.175 E43.39518
G1 X-18.597 Y6.437 E43.48816
G1 X-19.125 Y4.640 E43.58114
G1 X-19.479 Y2.801 E43.67412
G1 X-19.657 Y0.936 E43.76710
G1 X-19.657 Y-0.936 E43.86008
G1 X-19.479 Y-2.801 E43.95305
G1 X-19.125 Y-4.640 E44.04603
G1 X-18.597 Y-6.437 E44.13901
G1 X-17.901 Y-8.175 E44.23199
G1 X-17.043 Y-9.840 E44.32497
G1 X-16.031 Y-11.415 E44.41795
G1 X-14.873 Y-12.887 E44.51093
G1 X-13.642 Y-14.178 E44.59946
G1 X-13.581 Y-14.243 E44.60391
M126
M73 P1
G1 F1800.000 E42.60391
G1 Z1.300 F9000.000
