; generated by Slic3r 0.9.8 on 2013-04-14 at 18:54:36

; layer_height = 0.2
; perimeters = 2
; top_solid_layers = 3
; bottom_solid_layers = 3
; fill_density = 0.15
; perimeter_speed = 40
; infill_speed = 80
; travel_speed = 150
; scale = 1
; nozzle_diameter = 0.4
; filament_diameter = 1.75
; extrusion_multiplier = 1
; perimeters extrusion width = 0.64mm
; infill extrusion width = 0.64mm
; first layer extrusion width = 0.60mm

M127
M104 S230 T0 ; set temperature
(**** Start.gcode for Replicator 2 ****)
M103 ;disable RPM
M73 P0 ;enable build progress
G21 ;set units to mm
G90 ;set positioning to absolute
(**** begin homing ****)
G162 X Y F2500 ;home XY axes maximum
G161 Z F1100 ;home Z axis minimum
G92 Z-5 ;set Z to -5
G1 Z0.0 ;move Z to "0"
G161 Z F100 ;home Z axis minimum
M132 X Y Z A B ;Recall stored home offsets for XYZAB axis
(**** end homing ****)
G1 X-141 Y-74 Z75 F3300.0 ;move to waiting position
G130 X20 Y20 Z20 A20 B20 ;Lower stepper Vrefs while heating
M6 T0 ;wait for toolhead, and HBP to reach temperature
M70 P5 (We Be Making Things!)
G130 X127 Y127 Z40 A127 B127 ;Set Stepper motor Vref to defaults
M108 R3.0 T0
G0 X-141 Y-74 ;Position Nozzle
G0 Z1 ;Move above plate
G1 Z0.3 ;Position Height
M108 R5.0 ;Set Extruder Speed
M101 ;Start Extruder
G4 P3000 ;Create Anchor
G1 X-137 Y-70 Z0.1 F1000.0 ;Slow wipe
G0 Z0.3 ;and lift
(**** end of Start.gcode ****)
G90 ; use absolute coordinates
G21 ; set units to millimeters
M73 P0
G1 F1800.000 E-2.00000
G1 Z0.300 F9000.000
(**** New Layer ****)
G1 X-18.317 Y-18.810
G1 F1800.000 E0.00000
G1 X-17.907 Y-19.200 F2160.000 E0.03932
G1 X-16.497 Y-20.430 E0.16932
G1 X-15.987 Y-20.830 E0.21436
G1 X-14.457 Y-21.920 E0.34489
G1 X-13.907 Y-22.280 E0.39056
G1 X-12.277 Y-23.210 E0.52095
G1 X-11.757 Y-23.470 E0.56135
G1 X-10.057 Y-24.250 E0.69131
G1 X-9.497 Y-24.480 E0.73337
G1 X-7.727 Y-25.100 E0.86368
G1 X-7.097 Y-25.280 E0.90921
G1 X-5.277 Y-25.720 E1.03931
G1 X-4.677 Y-25.840 E1.08182
G1 X-2.817 Y-26.110 E1.21241
G1 X-1.877 Y-26.180 E1.27791
G1 X-0.317 Y-26.250 E1.38641
G1 X0.273 Y-26.250 E1.42740
G1 X2.143 Y-26.170 E1.55745
G1 X2.803 Y-26.110 E1.60350
G1 X4.663 Y-25.840 E1.73409
G1 X5.263 Y-25.720 E1.77661
G1 X7.083 Y-25.280 E1.90671
G1 X7.713 Y-25.100 E1.95223
G1 X9.483 Y-24.480 E2.08254
G1 X10.033 Y-24.260 E2.12370
G1 X11.743 Y-23.480 E2.25429
G1 X12.283 Y-23.200 E2.29656
G1 X13.903 Y-22.270 E2.42635
G1 X14.443 Y-21.920 E2.47106
G1 X15.973 Y-20.830 E2.60158
G1 X16.463 Y-20.450 E2.64467
G1 X17.883 Y-19.220 E2.77520
G1 X18.333 Y-18.790 E2.81845
G1 X19.623 Y-17.440 E2.94819
G1 X20.043 Y-16.950 E2.99303
G1 X21.203 Y-15.470 E3.12368
G1 X21.563 Y-14.960 E3.16706
G1 X22.573 Y-13.380 E3.29735
G1 X22.873 Y-12.870 E3.33847
G1 X23.733 Y-11.210 E3.46837
G1 X23.993 Y-10.640 E3.51190
G1 X24.693 Y-8.900 E3.64221
G1 X24.903 Y-8.300 E3.68638
G1 X25.433 Y-6.500 E3.81676
G1 X25.583 Y-5.880 E3.86108
G1 X25.933 Y-4.040 E3.99122
G1 X26.023 Y-3.440 E4.03337
G1 X26.203 Y-1.570 E4.16391
G1 X26.233 Y-0.940 E4.20773
G1 X26.233 Y0.930 E4.33766
G1 X26.203 Y1.560 E4.38148
G1 X26.023 Y3.430 E4.51202
G1 X25.933 Y4.030 E4.55417
G1 X25.583 Y5.870 E4.68431
G1 X25.433 Y6.490 E4.72863
G1 X24.903 Y8.290 E4.85901
G1 X24.693 Y8.890 E4.90318
G1 X23.993 Y10.630 E5.03349
G1 X23.733 Y11.200 E5.07702
G1 X22.873 Y12.860 E5.20692
G1 X22.573 Y13.370 E5.24804
G1 X21.563 Y14.950 E5.37833
G1 X21.203 Y15.460 E5.42171
G1 X20.043 Y16.940 E5.55236
G1 X19.623 Y17.430 E5.59720
G1 X18.333 Y18.780 E5.72694
G1 X17.883 Y19.210 E5.77019
G1 X16.463 Y20.440 E5.90072
G1 X15.973 Y20.820 E5.94381
G1 X14.443 Y21.910 E6.07433
G1 X13.903 Y22.260 E6.11904
G1 X12.283 Y23.190 E6.24883
G1 X11.773 Y23.450 E6.28861
G1 X10.083 Y24.230 E6.41794
G1 X9.483 Y24.480 E6.46310
G1 X7.693 Y25.100 E6.59472
G1 X7.083 Y25.270 E6.63872
G1 X5.263 Y25.710 E6.76882
G1 X4.663 Y25.830 E6.81134
G1 X2.803 Y26.100 E6.94193
G1 X2.143 Y26.160 E6.98798
G1 X0.273 Y26.240 E7.11803
G1 X-0.287 Y26.240 E7.15694
G1 X-2.157 Y26.160 E7.28699
G1 X-2.817 Y26.100 E7.33303
G1 X-4.677 Y25.830 E7.46362
G1 X-5.277 Y25.710 E7.50614
G1 X-7.097 Y25.270 E7.63624
G1 X-7.727 Y25.090 E7.68176
G1 X-9.497 Y24.470 E7.81207
G1 X-10.057 Y24.240 E7.85414
G1 X-11.757 Y23.460 E7.98410
G1 X-12.277 Y23.200 E8.02449
G1 X-13.907 Y22.270 E8.15489
G1 X-14.457 Y21.910 E8.20056
G1 X-15.987 Y20.820 E8.33109
G1 X-16.497 Y20.420 E8.37612
G1 X-17.907 Y19.190 E8.50613
G1 X-18.317 Y18.800 E8.54545
G1 X-19.617 Y17.450 E8.67567
G1 X-20.077 Y16.920 E8.72443
G1 X-21.227 Y15.440 E8.85466
G1 X-21.557 Y14.980 E8.89399
G1 X-22.577 Y13.400 E9.02466
G1 X-22.887 Y12.860 E9.06793
G1 X-23.747 Y11.200 E9.19783
G1 X-24.027 Y10.600 E9.24383
G1 X-24.717 Y8.860 E9.37389
G1 X-24.907 Y8.290 E9.41564
G1 X-25.437 Y6.490 E9.54601
G1 X-25.587 Y5.900 E9.58831
G1 X-25.947 Y4.060 E9.71858
G1 X-26.037 Y3.390 E9.76555
G1 X-26.207 Y1.520 E9.89602
G1 X-26.237 Y0.930 E9.93707
G1 X-26.237 Y-0.940 E10.06700
G1 X-26.207 Y-1.530 E10.10805
G1 X-26.037 Y-3.400 E10.23851
G1 X-25.957 Y-3.990 E10.27988
G1 X-25.657 Y-5.630 E10.39572
G1 X-25.497 Y-6.310 E10.44426
G1 X-24.907 Y-8.310 E10.58915
G1 X-24.717 Y-8.870 E10.63024
G1 X-24.027 Y-10.610 E10.76029
G1 X-23.747 Y-11.210 E10.80630
G1 X-22.887 Y-12.870 E10.93620
G1 X-22.577 Y-13.410 E10.97946
G1 X-21.557 Y-14.990 E11.11013
G1 X-21.227 Y-15.450 E11.14947
G1 X-20.077 Y-16.930 E11.27970
G1 X-19.617 Y-17.460 E11.32846
G1 X-18.375 Y-18.750 E11.45287
G1 X-18.317 Y-18.810 E11.45868
G1 F1800.000 E9.45868
G1 X18.602 Y-4.513 F9000.000
G1 F1800.000 E11.45868
G1 X18.947 Y-2.724 F2160.000 E11.58525
G1 X19.120 Y-0.911 E11.71182
G1 X19.120 Y0.911 E11.83839
G1 X18.947 Y2.724 E11.96496
G1 X18.602 Y4.513 E12.09153
G1 X18.089 Y6.261 E12.21810
G1 X17.412 Y7.952 E12.34467
G1 X16.577 Y9.571 E12.47124
G1 X15.593 Y11.103 E12.59781
G1 X14.467 Y12.535 E12.72438
G1 X13.209 Y13.854 E12.85095
G1 X11.833 Y15.047 E12.97752
G1 X10.349 Y16.103 E13.10409
G1 X8.771 Y17.014 E13.23066
G1 X7.114 Y17.771 E13.35723
G1 X5.393 Y18.367 E13.48380
G1 X3.623 Y18.796 E13.61037
G1 X1.820 Y19.055 E13.73694
G1 X0.000 Y19.142 E13.86351
G1 X-1.820 Y19.055 E13.99008
G1 X-3.623 Y18.796 E14.11665
G1 X-5.393 Y18.367 E14.24322
G1 X-7.114 Y17.771 E14.36979
G1 X-7.268 Y17.701 E14.38150
G1 X-8.771 Y17.014 E14.49636
G1 X-10.349 Y16.103 E14.62293
G1 X-11.833 Y15.047 E14.74950
G1 X-13.209 Y13.854 E14.87607
G1 X-14.467 Y12.535 E15.00264
G1 X-15.593 Y11.103 E15.12921
G1 X-16.577 Y9.571 E15.25578
G1 X-17.412 Y7.952 E15.38235
G1 X-18.089 Y6.261 E15.50892
G1 X-18.602 Y4.513 E15.63549
G1 X-18.947 Y2.724 E15.76206
G1 X-19.120 Y0.911 E15.88863
G1 X-19.120 Y-0.911 E16.01520
G1 X-18.947 Y-2.724 E16.14177
G1 X-18.602 Y-4.513 E16.26834
G1 X-18.089 Y-6.261 E16.39491
G1 X-17.412 Y-7.952 E16.52148
G1 X-16.577 Y-9.571 E16.64805
G1 X-15.593 Y-11.103 E16.77462
G1 X-14.467 Y-12.535 E16.90119
G1 X-13.209 Y-13.854 E17.02776
G1 X-11.833 Y-15.047 E17.15433
G1 X-10.349 Y-16.103 E17.28090
G1 X-8.771 Y-17.014 E17.40747
G1 X-7.114 Y-17.771 E17.53404
G1 X-5.393 Y-18.367 E17.66061
G1 X-3.623 Y-18.796 E17.78718
G1 X-1.820 Y-19.055 E17.91375
G1 X-0.000 Y-19.142 E18.04032
G1 X1.820 Y-19.055 E18.16689
G1 X3.623 Y-18.796 E18.29346
G1 X5.393 Y-18.367 E18.42003
G1 X7.114 Y-17.771 E18.54660
G1 X8.771 Y-17.014 E18.67317
G1 X10.349 Y-16.103 E18.79974
G1 X11.833 Y-15.047 E18.92631
G1 X13.209 Y-13.854 E19.05288
G1 X14.467 Y-12.535 E19.17945
G1 X15.593 Y-11.103 E19.30602
G1 X16.577 Y-9.571 E19.43259
G1 X17.412 Y-7.952 E19.55916
G1 X18.089 Y-6.261 E19.68573
G1 X18.579 Y-4.593 E19.80649
G1 X18.602 Y-4.513 E19.81230
G1 X19.144 Y-4.644 F9000.000
G1 X19.499 Y-2.804 F1080.000 E19.94255
G1 X19.677 Y-0.937 E20.07281
G1 X19.677 Y0.937 E20.20307
G1 X19.499 Y2.804 E20.33333
G1 X19.144 Y4.644 E20.46358
G1 X18.616 Y6.443 E20.59384
G1 X17.919 Y8.184 E20.72410
G1 X17.060 Y9.850 E20.85436
G1 X16.047 Y11.427 E20.98461
G1 X14.888 Y12.901 E21.11487
G1 X13.594 Y14.257 E21.24513
G1 X12.178 Y15.485 E21.37539
G1 X10.650 Y16.572 E21.50564
G1 X9.027 Y17.510 E21.63590
G1 X7.339 Y18.282 E21.76488
G1 X5.550 Y18.902 E21.89642
G1 X3.728 Y19.344 E22.02668
G1 X1.873 Y19.610 E22.15694
G1 X0.000 Y19.700 E22.28720
G1 X-1.873 Y19.610 E22.41745
G1 X-3.728 Y19.344 E22.54771
G1 X-5.550 Y18.902 E22.67797
G1 X-7.322 Y18.289 E22.80823
G1 X-7.499 Y18.207 E22.82178
G1 X-9.027 Y17.510 E22.93848
G1 X-10.650 Y16.572 E23.06874
G1 X-12.178 Y15.485 E23.19900
G1 X-13.594 Y14.257 E23.32926
G1 X-14.888 Y12.901 E23.45952
G1 X-16.047 Y11.427 E23.58977
G1 X-17.060 Y9.850 E23.72003
G1 X-17.919 Y8.184 E23.85029
G1 X-18.616 Y6.443 E23.98055
G1 X-19.144 Y4.644 E24.11080
G1 X-19.499 Y2.804 E24.24106
G1 X-19.677 Y0.937 E24.37132
G1 X-19.677 Y-0.937 E24.50158
G1 X-19.499 Y-2.804 E24.63183
G1 X-19.182 Y-4.447 E24.74813
G1 X-19.202 Y-4.447 E24.74951
G1 X-18.616 Y-6.443 E24.89406
G1 X-17.919 Y-8.184 E25.02432
G1 X-17.060 Y-9.850 E25.15457
G1 X-16.047 Y-11.427 E25.28483
G1 X-14.888 Y-12.901 E25.41509
G1 X-13.594 Y-14.257 E25.54535
G1 X-12.178 Y-15.485 E25.67560
G1 X-10.650 Y-16.572 E25.80586
G1 X-9.027 Y-17.510 E25.93612
G1 X-7.322 Y-18.289 E26.06638
G1 X-5.550 Y-18.902 E26.19664
G1 X-3.728 Y-19.344 E26.32689
G1 X-1.873 Y-19.610 E26.45715
G1 X-0.000 Y-19.700 E26.58741
G1 X1.873 Y-19.610 E26.71767
G1 X3.728 Y-19.344 E26.84792
G1 X5.550 Y-18.902 E26.97818
G1 X7.322 Y-18.289 E27.10844
G1 X9.027 Y-17.510 E27.23870
G1 X10.650 Y-16.572 E27.36895
G1 X12.178 Y-15.485 E27.49921
G1 X13.594 Y-14.257 E27.62947
G1 X14.888 Y-12.901 E27.75973
G1 X16.047 Y-11.427 E27.88998
G1 X17.060 Y-9.850 E28.02024
G1 X17.919 Y-8.184 E28.15050
G1 X18.616 Y-6.443 E28.28076
G1 X19.121 Y-4.725 E28.40521
G1 X19.144 Y-4.644 E28.41101
G1 X18.735 Y-4.266 F9000.000
G1 F1800.000 E26.41101
G1 X13.004 Y-13.271 F9000.000
G1 F1800.000 E28.41101
G1 X12.647 Y-13.628 F4320.000 E28.44645
G1 F1800.000 E26.44645
G1 X9.390 Y-16.089 F9000.000
G1 F1800.000 E28.44645
G1 X16.107 Y-9.372 F4320.000 E29.11350
G1 X17.021 Y-7.661 E29.24973
G1 X7.691 Y-16.991 E30.17632
G1 X6.311 Y-17.575 E30.28155
G1 X17.576 Y-6.311 E31.40023
G1 X17.968 Y-5.122 E31.48816
G1 X5.093 Y-17.997 E32.76676
G1 X4.037 Y-18.257 E32.84312
G1 X18.273 Y-4.021 E34.25685
G1 X18.463 Y-3.034 E34.32739
G1 X3.027 Y-18.471 E35.86033
G1 X2.097 Y-18.604 E35.92630
G1 X18.608 Y-2.093 E37.56600
G1 X18.692 Y-1.213 E37.62809
G1 X1.210 Y-18.696 E39.36424
G1 X0.374 Y-18.735 E39.42301
G1 X18.741 Y-0.368 E41.24698
G1 X18.741 Y0.428 E41.30289
G1 X-0.437 Y-18.749 E43.20730
G1 X-1.197 Y-18.713 E43.26073
G1 X18.726 Y1.210 E45.23921
G1 X18.657 Y1.937 E45.29048
G1 X-1.944 Y-18.665 E47.33634
G1 X-2.645 Y-18.569 E47.38599
G1 X18.588 Y2.664 E49.49453
G1 X18.472 Y3.344 E49.54300
G1 X-3.346 Y-18.473 E51.70961
G1 X-4.016 Y-18.348 E51.75751
G1 X18.343 Y4.012 E53.97794
G1 X18.205 Y4.670 E54.02516
G1 X-4.657 Y-18.192 E56.29551
G1 X-5.298 Y-18.037 E56.34181
G1 X18.024 Y5.285 E58.65784
G1 X17.844 Y5.901 E58.70288
G1 X-5.898 Y-17.841 E61.06059
G1 X-6.489 Y-17.636 E61.10454
G1 X17.643 Y6.496 E63.50107
G1 X17.415 Y7.065 E63.54408
G1 X-7.081 Y-17.432 E65.97674
G1 X-7.628 Y-17.182 E66.01894
G1 X17.188 Y7.633 E68.48330
G1 X16.937 Y8.179 E68.52545
G1 X-8.174 Y-16.933 E71.01919
G1 X-8.719 Y-16.681 E71.06131
G1 X16.666 Y8.704 E73.58222
G1 X16.395 Y9.230 E73.62373
G1 X-9.224 Y-16.389 E76.16786
G1 X-9.728 Y-16.098 E76.20879
G1 X16.103 Y9.733 E78.77397
G1 X15.791 Y10.218 E78.81443
G1 X-10.232 Y-15.806 E81.39873
G1 X-10.698 Y-15.475 E81.43882
G1 X15.479 Y10.702 E84.03837
G1 X15.149 Y11.168 E84.07848
G1 X-11.163 Y-15.144 E86.69145
G1 X-11.628 Y-14.812 E86.73153
G1 X14.799 Y11.614 E89.35587
G1 X14.449 Y12.060 E89.39569
G1 X-12.057 Y-14.446 E92.02789
G1 X-12.484 Y-14.076 E92.06753
G1 X14.084 Y12.492 E94.70594
G1 X13.696 Y12.900 E94.74548
G1 X-12.910 Y-13.707 E97.38766
G1 X-13.307 Y-13.307 E97.42720
G1 X13.307 Y13.307 E100.07019
G1 X12.910 Y13.707 E100.10973
G1 X-13.696 Y-12.900 E102.75191
G1 X-14.084 Y-12.492 E102.79146
G1 X12.484 Y14.076 E105.42987
G1 X12.057 Y14.446 E105.46951
G1 X-14.449 Y-12.060 E108.10171
G1 X-14.799 Y-11.614 E108.14153
G1 X11.628 Y14.812 E110.76587
G1 X11.163 Y15.144 E110.80596
G1 X-15.149 Y-11.168 E113.41892
G1 X-15.479 Y-10.702 E113.45903
G1 X10.698 Y15.475 E116.05858
G1 X10.232 Y15.806 E116.09867
G1 X-15.791 Y-10.218 E118.68297
G1 X-16.103 Y-9.733 E118.72343
G1 X9.728 Y16.098 E121.28861
G1 X9.224 Y16.389 E121.32954
G1 X-16.395 Y-9.230 E123.87368
G1 X-16.666 Y-8.704 E123.91519
G1 X8.719 Y16.681 E126.43610
G1 X8.174 Y16.933 E126.47822
G1 X-16.937 Y-8.179 E128.97196
G1 X-17.188 Y-7.633 E129.01411
G1 X7.628 Y17.182 E131.47848
G1 X7.081 Y17.432 E131.52068
G1 X-17.416 Y-7.065 E133.95335
G1 X-17.643 Y-6.496 E133.99635
G1 X6.489 Y17.636 E136.39288
G1 X5.898 Y17.841 E136.43684
G1 X-17.844 Y-5.901 E138.79454
G1 X-18.024 Y-5.285 E138.83959
G1 X5.298 Y18.037 E141.15562
G1 X4.657 Y18.192 E141.20192
G1 X-18.205 Y-4.670 E143.47228
G1 X-18.343 Y-4.012 E143.51950
G1 X4.016 Y18.348 E145.73992
G1 X3.346 Y18.473 E145.78783
G1 X-18.472 Y-3.344 E147.95445
G1 X-18.588 Y-2.664 E148.00292
G1 X2.645 Y18.569 E150.11146
G1 X1.945 Y18.665 E150.16111
G1 X-18.657 Y-1.937 E152.20698
G1 X-18.726 Y-1.210 E152.25825
G1 X1.197 Y18.713 E154.23674
G1 X0.437 Y18.749 E154.29017
G1 X-18.741 Y-0.428 E156.19460
G1 X-18.741 Y0.368 E156.25051
G1 X-0.373 Y18.735 E158.07449
G1 X-1.210 Y18.696 E158.13327
G1 X-18.692 Y1.213 E159.86942
G1 X-18.608 Y2.093 E159.93152
G1 X-2.097 Y18.605 E161.57122
G1 X-3.027 Y18.471 E161.63719
G1 X-18.463 Y3.034 E163.17015
G1 X-18.273 Y4.020 E163.24068
G1 X-4.037 Y18.257 E164.65443
G1 X-5.093 Y17.997 E164.73078
G1 X-17.968 Y5.121 E166.00941
G1 X-17.576 Y6.310 E166.09734
G1 X-6.311 Y17.575 E167.21603
G1 X-7.691 Y16.992 E167.32126
G1 X-17.021 Y7.661 E168.24786
G1 X-16.107 Y9.372 E168.38409
G1 X-9.390 Y16.089 E169.05115
G1 F1800.000 E167.05115
G1 X-12.646 Y13.628 F9000.000
G1 F1800.000 E169.05115
G1 X-13.005 Y13.270 F4320.000 E169.08676
M126
M104 S225 T0 ; set temperature
M73 P0
G1 F1800.000 E167.08676
G1 Z0.500 F9000.000
(**** New Layer ****)
G1 X3.611 Y18.737
G1 F1800.000 E169.08676
G1 X1.814 Y18.995 F2400.000 E169.17691
G1 X-0.000 Y19.082 E169.26707
G1 X-1.814 Y18.995 E169.35722
G1 X-3.611 Y18.737 E169.44738
G1 X-5.376 Y18.309 E169.53753
G1 X-7.092 Y17.715 E169.62769
G1 X-8.744 Y16.961 E169.71784
G1 X-10.316 Y16.053 E169.80800
G1 X-10.736 Y15.754 E169.83355
G1 X-11.796 Y14.999 E169.89815
G1 X-13.168 Y13.810 E169.98831
G1 X-14.421 Y12.496 E170.07846
G1 X-15.544 Y11.069 E170.16862
G1 X-16.525 Y9.541 E170.25877
G1 X-17.357 Y7.927 E170.34893
G1 X-18.032 Y6.241 E170.43908
G1 X-18.544 Y4.499 E170.52924
G1 X-18.888 Y2.716 E170.61939
G1 X-19.060 Y0.908 E170.70955
G1 X-19.060 Y-0.908 E170.79970
G1 X-18.888 Y-2.716 E170.88986
G1 X-18.544 Y-4.499 E170.98001
G1 X-18.032 Y-6.241 E171.07017
G1 X-17.357 Y-7.927 E171.16032
G1 X-16.525 Y-9.541 E171.25048
G1 X-15.544 Y-11.069 E171.34063
G1 X-14.421 Y-12.496 E171.43079
G1 X-13.168 Y-13.810 E171.52094
G1 X-11.796 Y-14.999 E171.61110
G1 X-10.316 Y-16.053 E171.70125
G1 X-8.744 Y-16.961 E171.79141
G1 X-7.092 Y-17.715 E171.88156
G1 X-5.376 Y-18.309 E171.97172
G1 X-3.611 Y-18.737 E172.06187
G1 X-1.814 Y-18.995 E172.15203
G1 X0.000 Y-19.082 E172.24218
G1 X1.814 Y-18.995 E172.33234
G1 X3.611 Y-18.737 E172.42249
G1 X5.376 Y-18.309 E172.51265
G1 X7.092 Y-17.715 E172.60280
G1 X8.744 Y-16.961 E172.69296
G1 X10.316 Y-16.053 E172.78311
G1 X11.796 Y-14.999 E172.87327
G1 X13.168 Y-13.810 E172.96342
G1 X14.421 Y-12.496 E173.05358
G1 X15.544 Y-11.069 E173.14373
G1 X16.525 Y-9.541 E173.23389
G1 X17.357 Y-7.927 E173.32404
G1 X18.032 Y-6.241 E173.41420
G1 X18.544 Y-4.499 E173.50435
G1 X18.888 Y-2.716 E173.59450
G1 X19.060 Y-0.908 E173.68466
G1 X19.060 Y0.908 E173.77481
G1 X18.888 Y2.716 E173.86497
G1 X18.544 Y4.499 E173.95512
G1 X18.032 Y6.241 E174.04528
G1 X17.357 Y7.927 E174.13543
G1 X16.525 Y9.541 E174.22559
G1 X15.544 Y11.069 E174.31574
G1 X14.421 Y12.496 E174.40590
G1 X13.168 Y13.810 E174.49605
G1 X11.796 Y14.999 E174.58621
G1 X10.316 Y16.053 E174.67636
G1 X8.744 Y16.961 E174.76652
G1 X7.092 Y17.715 E174.85667
G1 X5.376 Y18.309 E174.94683
G1 X3.698 Y18.716 E175.03254
G1 X3.611 Y18.737 E175.03698
G1 X3.724 Y19.324 F9000.000
G1 X1.871 Y19.591 F1200.000 E175.12996
