; generated by Slic3r 0.9.8 on 2013-04-04 at 11:49:23

; layer_height = 0.34
; perimeters = 1
; top_solid_layers = 0
; bottom_solid_layers = 3
; fill_density = 0.0
; perimeter_speed = 40
; infill_speed = 80
; travel_speed = 150
; scale = 1
; nozzle_diameter = 0.4
; filament_diameter = 1.75
; extrusion_multiplier = 1
; perimeters extrusion width = 0.42mm
; infill extrusion width = 0.42mm
; first layer extrusion width = 0.80mm

M127
M104 S230 T0 ; set temperature
(**** Start.gcode for Replicator 2 ****)
M103 ;disable RPM
M73 P0 ;enable build progress
G21 ;set units to mm
G90 ;set positioning to absolute
(**** begin homing ****)
G162 X Y F2500 ;home XY axes maximum
G161 Z F1100 ;home Z axis minimum
G92 Z-5 ;set Z to -5
G1 Z0.0 ;move Z to "0"
G161 Z F100 ;home Z axis minimum
M132 X Y Z A B ;Recall stored home offsets for XYZAB axis
(**** end homing ****)
G1 X-141 Y-74 Z75 F3300.0 ;move to waiting position
G130 X20 Y20 Z20 A20 B20 ;Lower stepper Vrefs while heating
M6 T0 ;wait for toolhead, and HBP to reach temperature
M70 P5 (We Be Making Things!)
G130 X127 Y127 Z40 A127 B127 ;Set Stepper motor Vref to defaults
M108 R3.0 T0
G0 X-141 Y-74 ;Position Nozzle
G0 Z1 ;Move above plate
G1 Z0.3 ;Position Height
M108 R5.0 ;Set Extruder Speed
M101 ;Start Extruder
G4 P3000 ;Create Anchor
G1 X-137 Y-70 Z0.1 F1000.0 ;Slow wipe
G0 Z0.3 ;and lift
(**** end of Start.gcode ****)
G90 ; use absolute coordinates
G21 ; set units to millimeters
M73 P0
G1 F1800.000 E-2.00000
G1 Z0.400 F9000.000
(**** New Layer ****)
G1 X-22.314 Y-30.455
G1 F1800.000 E0.00000
G1 X-21.834 Y-31.105 F2160.000 E0.09596
G1 X-20.664 Y-32.415 E0.30457
G1 X-20.424 Y-32.665 E0.34572
G1 X-19.924 Y-33.125 E0.42642
G1 X-19.384 Y-33.525 E0.50623
G1 X-17.944 Y-34.385 E0.70543
G1 X-17.424 Y-34.665 E0.77557
G1 X-16.884 Y-34.895 E0.84528
G1 X-16.324 Y-35.075 E0.91514
G1 X-16.034 Y-35.145 E0.95057
G1 X-14.394 Y-35.455 E1.14879
G1 X-13.784 Y-35.545 E1.22202
G1 X-13.474 Y-35.565 E1.25892
G1 X-12.854 Y-35.565 E1.33255
G1 X-12.234 Y-35.505 E1.40653
G1 X-10.354 Y-35.235 E1.63210
G1 X-10.094 Y-35.175 E1.66379
G1 X-9.344 Y-34.965 E1.75629
G1 X-8.084 Y-34.525 E1.91479
G1 X-7.464 Y-34.275 E1.99419
G1 X-6.064 Y-33.625 E2.17751
G1 X-5.614 Y-33.395 E2.23753
G1 X32.536 Y-12.025 E7.43084
G1 X33.066 Y-11.695 E7.50499
G1 X35.886 Y-9.745 E7.91218
G1 X36.366 Y-9.345 E7.98639
G1 X36.806 Y-8.905 E8.06029
G1 X37.856 Y-7.745 E8.24611
G1 X38.276 Y-7.225 E8.32550
G1 X38.466 Y-6.955 E8.36471
G1 X38.806 Y-6.385 E8.44354
G1 X39.196 Y-5.585 E8.54924
G1 X39.526 Y-4.725 E8.65864
G1 X39.686 Y-4.135 E8.73124
G1 X39.866 Y-3.025 E8.86479
G1 X39.906 Y-2.375 E8.94213
G1 X39.906 Y-2.055 E8.98014
G1 X39.856 Y-1.405 E9.05756
G1 X39.716 Y-0.565 E9.15870
G1 X39.656 Y-0.245 E9.19737
G1 X39.476 Y0.395 E9.27633
G1 X39.236 Y1.015 E9.35529
G1 X38.666 Y2.135 E9.50454
G1 X38.496 Y2.415 E9.54344
G1 X38.116 Y2.945 E9.62090
G1 X37.906 Y3.195 E9.65967
G1 X36.556 Y4.615 E9.89237
G1 X36.136 Y5.025 E9.96208
G1 X35.906 Y5.215 E9.99751
G1 X35.436 Y5.555 E10.06640
G1 X33.296 Y6.985 E10.37208
G1 X32.626 Y7.395 E10.46537
G1 X-6.074 Y28.375 E15.69354
G1 X-6.534 Y28.605 E15.75462
G1 X-8.034 Y29.275 E15.94973
G1 X-8.784 Y29.555 E16.04481
G1 X-10.394 Y30.055 E16.24503
G1 X-11.184 Y30.215 E16.34076
G1 X-13.274 Y30.425 E16.59023
G1 X-13.944 Y30.425 E16.66980
G1 X-14.604 Y30.355 E16.74862
G1 X-16.504 Y29.975 E16.97875
G1 X-17.144 Y29.785 E17.05803
G1 X-17.454 Y29.665 E17.09751
G1 X-18.054 Y29.375 E17.17666
G1 X-19.484 Y28.515 E17.37484
G1 X-20.034 Y28.145 E17.45357
G1 X-20.294 Y27.935 E17.49326
G1 X-20.544 Y27.715 E17.53281
G1 X-21.014 Y27.245 E17.61175
G1 X-22.174 Y25.935 E17.81956
G1 X-22.654 Y25.275 E17.91649
G1 X-23.494 Y23.825 E18.11551
G1 X-23.884 Y23.055 E18.21802
G1 X-24.494 Y21.595 E18.40594
G1 X-24.754 Y20.825 E18.50246
G1 X-25.464 Y18.305 E18.81340
G1 X-25.624 Y17.665 E18.89175
G1 X-25.714 Y17.235 E18.94393
G1 X-26.254 Y14.145 E19.31647
G1 X-26.314 Y13.775 E19.36099
G1 X-26.684 Y10.635 E19.73649
G1 X-26.954 Y7.355 E20.12736
G1 X-27.144 Y3.855 E20.54365
G1 X-27.234 Y0.675 E20.92147
G1 X-27.244 Y-2.855 E21.34072
G1 X-27.184 Y-6.225 E21.74102
G1 X-27.044 Y-9.375 E22.11550
G1 X-26.824 Y-12.605 E22.50000
G1 X-26.484 Y-16.085 E22.91527
G1 X-26.034 Y-19.415 E23.31435
G1 X-25.444 Y-22.505 E23.68797
G1 X-25.294 Y-23.095 E23.76027
G1 X-24.474 Y-25.955 E24.11362
G1 X-24.204 Y-26.715 E24.20941
G1 X-23.574 Y-28.205 E24.40154
G1 X-23.174 Y-29.005 E24.50776
G1 X-22.370 Y-30.363 E24.69526
G1 X-22.314 Y-30.455 E24.70798
G1 F1800.000 E22.70798
G1 X-16.670 Y-26.809 F9000.000
G1 F1800.000 E24.70798
G1 X-15.667 Y-27.916 F2160.000 E24.88530
G1 X-14.516 Y-28.597 E25.04415
G1 X-13.165 Y-28.846 E25.20737
G1 X-11.546 Y-28.617 E25.40150
G1 X-10.287 Y-28.180 E25.55982
G1 X-8.886 Y-27.526 E25.74348
G1 X-6.622 Y-26.245 E26.05231
G1 X-6.254 Y-26.012 E26.10407
G1 X-6.074 Y-25.871 E26.13128
G1 X-3.681 Y-24.344 E26.46839
G1 X-3.503 Y-24.201 E26.49553
G1 X-1.109 Y-22.610 E26.83687
G1 X-0.934 Y-22.469 E26.86357
G1 X1.385 Y-20.928 E27.19422
G1 X1.572 Y-20.780 E27.22261
G1 X4.034 Y-19.188 E27.57087
G1 X4.224 Y-19.044 E27.59910
G1 X6.688 Y-17.526 E27.94282
G1 X6.894 Y-17.380 E27.97284
G1 X9.546 Y-15.854 E28.33623
G1 X9.748 Y-15.723 E28.36475
G1 X12.301 Y-14.377 E28.70761
G1 X12.509 Y-14.250 E28.73654
G1 X15.154 Y-12.958 E29.08606
G1 X15.359 Y-12.838 E29.11437
G1 X17.992 Y-11.616 E29.45903
G1 X18.194 Y-11.501 E29.48662
G1 X23.644 Y-9.008 E30.19846
G1 X23.845 Y-8.889 E30.22615
G1 X26.481 Y-7.643 E30.57249
G1 X26.673 Y-7.518 E30.59969
G1 X29.263 Y-6.155 E30.94728
G1 X29.631 Y-5.881 E31.00174
G1 X31.834 Y-4.390 E31.31769
G1 X32.881 Y-3.229 E31.50335
G1 X33.123 Y-2.721 E31.57019
G1 X33.201 Y-2.235 E31.62864
G1 X33.112 Y-1.732 E31.68933
G1 X32.844 Y-1.205 E31.75961
G1 X31.716 Y-0.021 E31.95378
G1 X29.571 Y1.414 E32.26032
G1 X29.205 Y1.633 E32.31095
G1 X29.000 Y1.717 E32.33722
G1 X26.466 Y3.049 E32.67729
G1 X26.258 Y3.125 E32.70359
G1 X23.691 Y4.341 E33.04091
G1 X23.468 Y4.418 E33.06892
G1 X20.774 Y5.640 E33.42022
G1 X20.557 Y5.715 E33.44746
G1 X17.966 Y6.886 E33.78525
G1 X17.742 Y6.966 E33.81344
G1 X15.095 Y8.193 E34.15994
G1 X14.869 Y8.278 E34.18857
G1 X12.227 Y9.567 E34.53777
G1 X12.004 Y9.659 E34.56643
G1 X9.422 Y11.017 E34.91293
G1 X9.198 Y11.119 E34.94211
G1 X6.635 Y12.590 E35.29311
G1 X6.418 Y12.697 E35.32180
G1 X3.932 Y14.226 E35.66844
G1 X3.723 Y14.334 E35.69636
G1 X1.323 Y15.884 E36.03568
G1 X1.118 Y15.994 E36.06336
G1 X-3.885 Y19.291 E36.77495
G1 X-4.091 Y19.397 E36.80247
G1 X-6.545 Y20.963 E37.14819
G1 X-6.959 Y21.173 E37.20330
G1 X-9.270 Y22.479 E37.51857
G1 X-10.774 Y23.147 E37.71403
G1 X-12.121 Y23.569 E37.88172
G1 X-13.607 Y23.722 E38.05915
G1 X-14.858 Y23.466 E38.21075
G1 X-15.997 Y22.781 E38.36859
G1 X-16.982 Y21.679 E38.54413
G1 X-17.682 Y20.474 E38.70968
G1 X-18.289 Y19.007 E38.89815
G1 X-19.000 Y16.495 E39.20826
G1 X-19.096 Y16.075 E39.25939
G1 X-19.115 Y15.850 E39.28629
G1 X-19.637 Y12.994 E39.63109
G1 X-19.644 Y12.767 E39.65805
G1 X-20.011 Y9.850 E40.00717
G1 X-20.010 Y9.628 E40.03354
G1 X-20.263 Y6.808 E40.36982
G1 X-20.255 Y6.578 E40.39716
G1 X-20.432 Y3.669 E40.74325
G1 X-20.418 Y3.436 E40.77101
G1 X-20.521 Y0.487 E41.12148
G1 X-20.502 Y0.252 E41.14945
G1 X-20.534 Y-2.716 E41.50199
G1 X-20.509 Y-2.950 E41.52996
G1 X-20.471 Y-5.917 E41.88232
G1 X-20.441 Y-6.147 E41.90990
G1 X-20.334 Y-9.073 E42.25759
G1 X-20.299 Y-9.296 E42.28440
G1 X-20.122 Y-12.141 E42.62293
G1 X-20.080 Y-12.362 E42.64967
G1 X-19.821 Y-15.201 E42.98820
G1 X-19.774 Y-15.412 E43.01391
G1 X-19.427 Y-18.146 E43.34125
G1 X-19.366 Y-18.364 E43.36806
G1 X-18.843 Y-21.235 E43.71474
G1 X-18.705 Y-21.652 E43.76680
G1 X-18.018 Y-24.104 E44.06936
G1 X-17.391 Y-25.587 E44.26047
G1 X-16.723 Y-26.717 E44.41637
G1 X-16.670 Y-26.809 E44.42909
G1 F1800.000 E42.42909
G1 X-3.234 Y-23.241 F9000.000
G1 F1800.000 E44.42909
G1 X23.828 Y3.821 F4320.000 E48.98968
G1 X23.117 Y4.123 E49.08175
G1 X-6.182 Y-25.175 E54.01933
G1 X-8.744 Y-26.724 E54.37600
G1 X22.420 Y4.440 E59.62782
G1 X21.723 Y4.756 E59.71903
G1 X-10.770 Y-27.737 E65.19490
G1 X-12.234 Y-28.187 E65.37742
G1 X21.026 Y5.072 E70.98253
G1 X20.312 Y5.372 E71.07477
G1 X-13.404 Y-28.344 E76.75684
G1 X-14.256 Y-28.183 E76.86013
G1 X19.614 Y5.688 E82.56810
G1 X18.916 Y6.003 E82.65936
G1 X-14.953 Y-27.866 E88.36718
G1 X-15.554 Y-27.454 E88.45404
G1 X18.218 Y6.319 E94.14554
G1 X17.507 Y6.620 E94.23765
G1 X-16.035 Y-26.921 E99.89025
G1 X-16.474 Y-26.347 E99.97641
G1 X16.814 Y6.941 E105.58630
G1 X16.122 Y7.262 E105.67725
G1 X-16.849 Y-25.709 E111.23371
G1 X-17.176 Y-25.023 E111.32429
G1 X15.430 Y7.583 E116.81922
G1 X14.725 Y7.892 E116.91090
G1 X-17.477 Y-24.310 E122.33772
G1 X-17.724 Y-23.544 E122.43366
G1 X14.044 Y8.224 E127.78735
G1 X13.363 Y8.556 E127.87766
G1 X-17.946 Y-22.752 E133.15396
G1 X-18.168 Y-21.961 E133.25191
G1 X12.681 Y8.889 E138.45082
G1 X11.991 Y9.212 E138.54162
G1 X-18.397 Y-21.176 E143.66280
G1 X-18.553 Y-20.319 E143.76662
G1 X11.323 Y9.557 E148.80145
G1 X10.659 Y9.906 E148.89086
G1 X-18.709 Y-19.462 E153.84012
G1 X-18.865 Y-18.605 E153.94396
G1 X9.995 Y10.256 E158.80765
G1 X9.331 Y10.605 E158.89706
G1 X-19.015 Y-17.741 E163.67409
G1 X-19.129 Y-16.842 E163.78212
G1 X8.670 Y10.957 E168.46693
G1 X8.026 Y11.326 E168.55540
G1 X-19.243 Y-15.942 E173.15090
G1 X-19.366 Y-15.052 E173.25804
G1 X7.382 Y11.696 E177.76571
G1 X6.738 Y12.065 E177.85417
G1 X-19.451 Y-14.123 E182.26761
G1 X-19.535 Y-13.194 E182.37874
G1 X6.088 Y12.429 E186.69691
G1 X5.460 Y12.815 E186.78470
G1 X-19.638 Y-12.284 E191.01444
G1 X-19.698 Y-11.330 E191.12829
G1 X4.833 Y13.200 E195.26236
G1 X4.205 Y13.586 E195.35015
G1 X-19.757 Y-10.376 E199.38846
G1 X-19.819 Y-9.424 E199.50216
G1 X3.565 Y13.960 E203.44301
G1 X2.950 Y14.358 E203.53035
G1 X-19.877 Y-8.469 E207.37725
G1 X-19.913 Y-7.492 E207.49382
G1 X2.334 Y14.755 E211.24298
G1 X1.718 Y15.153 E211.33033
G1 X-19.949 Y-6.514 E214.98175
G1 X-19.992 Y-5.544 E215.09746
G1 X1.096 Y15.544 E218.65137
G1 X0.477 Y15.938 E218.73886
G1 X-20.005 Y-4.543 E222.19050
G1 X-20.017 Y-3.543 E222.30977
G1 X-0.134 Y16.341 E225.66059
G1 X-0.745 Y16.743 E225.74776
G1 X-20.043 Y-2.555 E228.99993
G1 X-20.032 Y-1.530 E229.12202
G1 X-1.356 Y17.146 E232.26937
G1 X-1.967 Y17.548 E232.35655
G1 X-20.021 Y-0.506 E235.39908
G1 X-20.025 Y0.503 E235.51927
G1 X-2.578 Y17.951 E238.45966
G1 X-3.189 Y18.353 E238.54685
G1 X-19.989 Y1.553 E241.37811
G1 X-19.952 Y2.603 E241.50331
G1 X-3.799 Y18.756 E244.22546
G1 X-4.430 Y19.138 E244.31337
G1 X-19.932 Y3.637 E246.92580
G1 X-19.867 Y4.715 E247.05459
G1 X-5.049 Y19.533 E249.55177
G1 X-5.667 Y19.928 E249.63922
G1 X-19.801 Y5.794 E252.02115
G1 X-19.748 Y6.860 E252.14835
G1 X-6.286 Y20.323 E254.41718
G1 X-6.925 Y20.697 E254.50543
G1 X-19.649 Y7.973 E256.64977
G1 X-19.549 Y9.087 E256.78294
G1 X-7.577 Y21.058 E258.80044
G1 X-8.225 Y21.424 E258.88905
G1 X-19.446 Y10.203 E260.78007
G1 X-19.300 Y11.362 E260.91931
G1 X-8.872 Y21.790 E262.67664
G1 X-9.534 Y22.142 E262.76593
G1 X-19.158 Y12.518 E264.38781
G1 X-18.963 Y13.726 E264.53359
G1 X-10.235 Y22.454 E266.00449
G1 X-10.951 Y22.751 E266.09689
G1 X-18.737 Y14.966 E267.40896
G1 X-18.499 Y16.216 E267.56069
G1 X-11.722 Y22.993 E268.70278
G1 X-12.585 Y23.144 E268.80712
G1 X-18.099 Y17.630 E269.73645
G1 X-17.586 Y19.156 E269.92835
G1 X-13.565 Y23.177 E270.60601
G1 X-15.753 Y22.002 E270.90199
G1 X-15.297 Y22.458 E270.97886
G1 F1800.000 E268.97886
G1 X-0.140 Y-21.160 F9000.000
G1 F1800.000 E270.97886
G1 X24.515 Y3.495 F4320.000 E275.13387
G1 X25.203 Y3.169 E275.22455
G1 X2.850 Y-19.183 E278.99155
G1 X5.606 Y-17.441 E279.38013
G1 X25.891 Y2.844 E282.79854
G1 X26.586 Y2.526 E282.88968
G1 X8.103 Y-15.957 E286.00452
G1 X10.389 Y-14.685 E286.31618
G1 X27.250 Y2.177 E289.15782
G1 X27.915 Y1.827 E289.24725
G1 X12.522 Y-13.565 E291.84125
G1 X14.503 Y-12.597 E292.10396
G1 X28.579 Y1.478 E294.47607
G1 X29.250 Y1.137 E294.56587
G1 X16.445 Y-11.669 E296.72393
G1 X18.367 Y-10.760 E296.97732
G1 X29.865 Y0.737 E298.91494
G1 X30.472 Y0.331 E299.00198
G1 X20.235 Y-9.906 E300.72717
G1 X22.102 Y-9.052 E300.97189
G1 X31.079 Y-0.075 E302.48468
G1 X31.649 Y-0.518 E302.57074
G1 X24.041 Y-8.127 E303.85293
G1 X25.994 Y-7.187 E304.11119
G1 X32.143 Y-1.037 E305.14757
G1 X32.588 Y-1.607 E305.23361
G1 X28.155 Y-6.039 E305.98058
G1 X31.129 Y-4.078 E306.40509
G1 X31.585 Y-3.622 E306.48192
M126
M104 S225 T0 ; set temperature
M73 P0
G1 F1800.000 E304.48192
G1 Z0.740 F9000.000
(**** New Layer ****)
G1 X31.803 Y-4.072
G1 F1800.000 E306.48192
G1 X32.863 Y-2.864 F2400.000 E306.57633
G1 X33.119 Y-2.306 E306.61243
G1 X33.198 Y-1.763 E306.64467
G1 X33.090 Y-1.206 E306.67804
G1 X32.791 Y-0.638 E306.71575
G1 X31.615 Y0.559 E306.81432
G1 X30.180 Y1.519 E306.91579
G1 X29.057 Y2.190 E306.99265
G1 X28.451 Y2.439 E307.03117
G1 X26.307 Y3.566 E307.17353
G1 X25.695 Y3.789 E307.21175
G1 X23.525 Y4.817 E307.35286
G1 X22.883 Y5.038 E307.39280
G1 X20.606 Y6.072 E307.53970
G1 X19.987 Y6.284 E307.57815
G1 X17.798 Y7.274 E307.71936
G1 X17.164 Y7.498 E307.75885
G1 X14.928 Y8.535 E307.90366
G1 X14.294 Y8.774 E307.94349
G1 X12.063 Y9.862 E308.08939
G1 X11.440 Y10.119 E308.12897
G1 X9.260 Y11.266 E308.27371
G1 X8.638 Y11.549 E308.31386
G1 X6.474 Y12.791 E308.46051
G1 X5.869 Y13.089 E308.50014
G1 X3.769 Y14.380 E308.64500
G1 X3.183 Y14.685 E308.68377
G1 X1.156 Y15.994 E308.82560
G1 X0.576 Y16.305 E308.86428
G1 X-1.433 Y17.638 E309.00591
G1 X-2.023 Y17.955 E309.04529
G1 X-4.069 Y19.315 E309.18963
G1 X-4.664 Y19.620 E309.22893
G1 X-6.737 Y20.945 E309.37352
G1 X-7.940 Y21.553 E309.45271
G1 X-9.482 Y22.424 E309.55679
G1 X-10.145 Y22.688 E309.59874
G1 X-11.004 Y23.076 E309.65414
G1 X-11.604 Y23.238 E309.69061
G1 X-12.379 Y23.486 E309.73844
G1 X-13.041 Y23.527 E309.77741
G1 X-13.907 Y23.622 E309.82861
G1 X-14.461 Y23.484 E309.86215
G1 X-15.206 Y23.336 E309.90684
G1 X-15.699 Y23.011 E309.94147
G1 X-16.381 Y22.606 E309.98811
G1 X-16.791 Y22.107 E310.02604
G1 X-17.376 Y21.460 E310.07733
G1 X-17.659 Y20.925 E310.11289
G1 X-18.071 Y20.224 E310.16069
G1 X-18.307 Y19.581 E310.20091
G1 X-18.662 Y18.739 E310.25462
G1 X-19.137 Y17.060 E310.35714
G1 X-19.431 Y15.779 E310.43439
G1 X-19.489 Y15.115 E310.47356
G1 X-19.930 Y12.698 E310.61794
G1 X-19.951 Y12.025 E310.65748
G1 X-20.262 Y9.558 E310.80359
G1 X-20.259 Y8.908 E310.84177
G1 X-20.473 Y6.523 E310.98249
G1 X-20.451 Y5.854 E311.02182
G1 X-20.600 Y3.395 E311.16663
G1 X-20.560 Y2.718 E311.20648
G1 X-20.647 Y0.224 E311.35311
G1 X-20.591 Y-0.456 E311.39320
G1 X-20.618 Y-2.966 E311.54071
G1 X-20.545 Y-3.644 E311.58078
G1 X-20.514 Y-6.153 E311.72821
G1 X-20.426 Y-6.820 E311.76775
G1 X-20.335 Y-9.294 E311.91323
G1 X-20.234 Y-9.941 E311.95173
G1 X-20.084 Y-12.347 E312.09339
G1 X-19.964 Y-12.991 E312.13188
G1 X-19.745 Y-15.393 E312.27357
G1 X-19.607 Y-16.011 E312.31080
G1 X-19.313 Y-18.325 E312.44787
G1 X-19.132 Y-18.969 E312.48717
G1 X-18.689 Y-21.399 E312.63230
G1 X-18.283 Y-22.626 E312.70826
G1 X-17.824 Y-24.263 E312.80820
G1 X-17.526 Y-24.896 E312.84929
G1 X-17.171 Y-25.751 E312.90368
G1 X-16.833 Y-26.275 E312.94034
G1 X-16.421 Y-26.984 E312.98855
G1 X-15.957 Y-27.457 E313.02748
G1 X-15.376 Y-28.106 E313.07865
G1 X-14.849 Y-28.389 E313.11381
G1 X-14.167 Y-28.797 E313.16050
G1 X-13.563 Y-28.883 E313.19637
G1 X-12.756 Y-29.037 E313.24463
G1 X-12.056 Y-28.908 E313.28643
G1 X-11.101 Y-28.778 E313.34307
G1 X-10.565 Y-28.567 E313.37695
G1 X-9.829 Y-28.316 E313.42264
G1 X-9.239 Y-28.011 E313.46169
G1 X-8.432 Y-27.641 E313.51382
G1 X-6.921 Y-26.786 E313.61585
G1 X-5.814 Y-26.084 E313.69285
G1 X-5.298 Y-25.682 E313.73130
G1 X-3.275 Y-24.392 E313.87232
G1 X-2.762 Y-23.976 E313.91111
G1 X-0.739 Y-22.632 E314.05383
G1 X-0.241 Y-22.230 E314.09148
G1 X1.719 Y-20.928 E314.22969
G1 X2.249 Y-20.510 E314.26939
G1 X4.328 Y-19.164 E314.41493
G1 X4.861 Y-18.762 E314.45415
G1 X6.942 Y-17.480 E314.59776
G1 X7.518 Y-17.072 E314.63925
G1 X9.758 Y-15.784 E314.79106
G1 X10.316 Y-15.419 E314.83028
G1 X12.473 Y-14.282 E314.97352
G1 X13.053 Y-13.928 E315.01349
G1 X15.287 Y-12.837 E315.15955
G1 X15.865 Y-12.499 E315.19893
G1 X18.090 Y-11.467 E315.34301
G1 X18.661 Y-11.142 E315.38164
G1 X20.855 Y-10.149 E315.52317
